vendor/shopware/storefront/Resources/app/storefront/dist/assets/icon/default/editor-shrink.svg

<svg xmlns="http://www.w3.org/2000/svg" width="12" height="12" viewBox="0 0 12 12">
  <path fill="#758CA3" fill-rule="evenodd" d="M9.41421356,4 L11,4 C11.5522847,4 12,4.44771525 12,5 C12,5.55228475 11.5522847,6 11,6 L7,6 C6.44771525,6 6,5.55228475 6,5 L6,1 C6,0.44771525 6.44771525,8.8817842e-16 7,8.8817842e-16 C7.55228475,8.8817842e-16 8,0.44771525 8,1 L8,2.58578644 L10.2928932,0.292893219 C10.6834175,-0.0976310729 11.3165825,-0.0976310729 11.7071068,0.292893219 C12.0976311,0.683417511 12.0976311,1.31658249 11.7071068,1.70710678 L9.41421356,4 Z M2.58578644,8 L1,8 C0.44771525,8 0,7.55228475 0,7 C0,6.44771525 0.44771525,6 1,6 L5,6 C5.55228475,6 6,6.44771525 6,7 L6,11 C6,11.5522847 5.55228475,12 5,12 C4.44771525,12 4,11.5522847 4,11 L4,9.41421356 L1.70710678,11.7071068 C1.31658249,12.0976311 0.683417511,12.0976311 0.292893219,11.7071068 C-0.0976310729,11.3165825 -0.0976310729,10.6834175 0.292893219,10.2928932 L2.58578644,8 Z"/>
</svg>

<svg xmlns="http://www.w3.org/2000/svg" width="12" height="12" viewBox="0 0 12 12"><path fill="#758CA3" fill-rule="evenodd" d="M9.4142 4H11c.5523 0 1 .4477 1 1s-.4477 1-1 1H7c-.5523 0-1-.4477-1-1V1c0-.5523.4477-1 1-1s1 .4477 1 1v1.5858l2.2929-2.293c.3905-.3904 1.0237-.3904 1.4142 0 .3905.3906.3905 1.0238 0 1.4143L9.4142 4zM2.5858 8H1c-.5523 0-1-.4477-1-1s.4477-1 1-1h4c.5523 0 1 .4477 1 1v4c0 .5523-.4477 1-1 1s-1-.4477-1-1V9.4142l-2.2929 2.293c-.3905.3904-1.0237.3904-1.4142 0-.3905-.3906-.3905-1.0238 0-1.4143L2.5858 8z"/></svg>
